X:1
T:THe Handsome Cabin Boy
M:6/8
L:1/8
K:G
 z4 z d| d2 c B2 A| G2- =F D2 E| =F2 D G2 G| G4- GD| G2 A B2 c| d2 e=f-g f|\
 e2 c =f2 e| d4- dG| G2 A B2 c| d2 e=f-g f| e2 c =f2 e| d4- dd| d2 c B2 A|\
 G2- =F D2 E| =F D2 G2 G| G4- G z|
